X:1
T:Royke Rumondor
T:Mazmur 55
T:PSALM 55
T:Doa Minta Tolong Terhadap Musuh
%%score [ 1 2 3 4 ]
L:1/8
Q:1/4=45
M:4/4
K:Eb
V:1 treble nm="Soprano" snm="S"
V:2 treble nm="Alto" snm="A"
V:3 treble-8 nm="Tenor" snm="T"
V:4 bass nm="Bass" snm="B"
V:1
"^Molto Adagio" G2 | GGGG c-GGB | B-A A3 A EF | G2 c2 cAAA | A-G !fermata!G4 GG | A2 GG ^F2 GG | %6
w: Be-|ri- lah te- li- nga- * Mu Ya|Al- * lah, ke- pa- da|do- a dan per- mo- ho-|nan- * ku, per- ha-|ti- kan- lah a- ku, ja-|
[M:2/4] =B2 c-d | e-d cG |[M:4/4] BA A2"^rit.""^rit.""^rit.""^rit." cAEF | %9
w: wab- lah _|a- * ku me-|nu- * rut ka- sih se- ti-|
 G2 !fermata!G2 z2 (3GGG | A-G G2 z GGG | e-c c4 cd | e-dc-=B"^rit.""^rit.""^rit.""^rit." c-AG-F | %13
w: a- Mu Ku me- ngem-|ba- * ra dan ku me-|na- * ngis, ku- di-|run- * dung * ke- * ta- *|
 G2 !fermata!G4 G2 | (3G^FG !fermata!A4 c2 | (3c=Bc d2 !fermata!d2 de | %16
w: ku- tan. Ha-|ti- ku ce- mas, ji-|wa- ku ge- li- sah, ke- nge-|
[M:3/4] f-e dc"^rit.""^rit.""^rit.""^rit." ef |[M:4/4] g2 !fermata!g4 z2 ||[M:2/4] z Ged | %19
w: ri- * an me- nim- pa|a- ku,|Na- mun pa-|
[M:3/4] c-d ed cG | A3 F dc | B2 F-G AB |[M:4/4] A-G G4 GG | G-F F2- A2 c-F | F-E E4 GG | %25
w: da- * Mu ku ber- se-|ru, Eng- kau me-|nye- la- * mat- kan|a- * ku Kau de-|ngar- * kan * ta- *|ngis- * ku, Kau be-|
 G-F F2- =A2 B-c | e-d d4 | B2 |[M:4/4] e2 e2 e2 dc | c-A A3 A fe | d3 c B-FG-A | c-B B4 BB | %32
w: bas- * kan * di- *|ri- * ku|Eng-|kau me- me- li- ha-|ra- * ku dan ti- dak|bi- ar- kan * ku _|go- * yah Eng- kau-|
 e2 e2 g2 e2 | e2 c2- c2 cA | G3 B A2 F2 | F-E E6 | =B8 | B8 | (=B4 A2 F2 | G8) |] %40
w: lah per- lin- dung-|an- ku _ Ku per-|ca- ya ke- pa-|da- * Mu|A-|min|A- * *|min.|
V:2
 G2 | EEEE G-EEG | G2 F3 F CD | E2 E2 EEEE | D2 !fermata!D4 GG | D2 EE E2 DD |[M:2/4] G2 A-F | %7
w: Be-|ri- lah te- li- nga- * Mu Ya|Al- lah, ke- pa- da|do- a dan per- mo- ho-|nan- ku. Per- ha-|ti- kan- lah a- ku, ja-|wab- lah _|
 G-E EG |[M:4/4] F2 F2 EFCC | D2 !fermata!D2 z2 (3GGG | F2 F2 z GGG | E2 E4 GG | F2 F2 E2 E2 | %13
w: a- * ku me-|nu- rut ka- sih se- ti-|a- Mu. Ku- me- ngem-|ba- ra, dan ku- me-|na- ngis, ku- di-|run- dung ke- ta-|
 D2 !fermata!D4 G2 | (3EEE !fermata!F4 c2 | (3AAA G2 !fermata!G2 GG |[M:3/4] A-G AA cc | %17
w: kut- an. Ha-|ti- ku ce- mas, ji-|wa- ku ge- li- sah, ke- nge-|ri- * an me- nim- pa|
[M:4/4] =B2 !fermata!B4 z2 ||[M:2/4] z F GG |[M:3/4] E2 GG EC | F3 D FF | F2 D2 DD | %22
w: a- ku.|Na- mun pa-|da- Mu ku ber- se-|ru, Eng- kau me-|nye- la- mat- kan|
[M:4/4] E2 E4 EE | D2 D2- F2 F2 | C2 C4 GG | C2 C2- C2 C2 | F2 F4 | F2 |[M:4/4] E2 G2 G2 GG | %29
w: a- ku Kau de-|ngar- kan _ ta-|ngis- ku, Kau be-|bas- kan _ di-|ri- ku.|Eng-|kau me- me- li- ha-|
 E2 E3 E EE | F2 F2 D2 D2 | E2 E4 GG | G2 G2 G2 G2 | A2 A2- A2 AF | G2 G2 F2 D2 | B,2 B,6 | E8 | %37
w: ra- ku dan ti- dak|bi- ar- kan ku-|go- yah Eng- kau-|lah per- lin- dung-|an- ku _ Ku per-|ca- ya ke- pa-|da- Mu.|A-|
 E8 | (E8 | E8) |] %40
w: min,|A-|min,|
V:3
 G2 | cccd e-ccc | c2 c3 A GG | c2 G2 AAcc | =B2 !fermata!B4 GG | =B2 cc c2 BB |[M:2/4] d2 c-=B | %7
w: Be-|ri- lah te- li- nga- * Mu Ya|Al- lah ke- pa- da|do- a dan per- mo- ho-|nan- ku. Per- ha-|ti- kan- lah a- ku, ja-|wab- lah _|
 e-c cc |[M:4/4] A2 c2 ccGA | c-=B !fermata!B2 z2 (3GGG | =B2 B2 z GGG | c-G G4 cc | c2 A2 A2 c2 | %13
w: a- * ku me-|nu- rut ka- sih se- ti-|a- * Mu. Ku- me- ngem-|ba- ra, dan ku- me-|na- * ngis, ku- di-|run- dung ke- ta-|
 c2 !fermata!=B4 G2 | (3ccc !fermata!=B4 c2 | (3edc =B2 !fermata!B2 Bc |[M:3/4] c2 cd ee | %17
w: kut- an. Ha-|ti- ku ce- mas, ji-|wa- ku ge- li- sah, ke- nge-|ri- an me- nim- pa|
[M:4/4] d2 !fermata!d4 z2 ||[M:2/4] z d c=B |[M:3/4] G2 cc cc | c3 A AA | d2 B2 BB | %22
w: a- ku.|Na- mun pa-|da- Mu ku ber- se-|ru, Eng- kau me-|nye- la- mat- kan|
[M:4/4] B2 B4 Bc | =B2 B2- B2 c-B | G2 G4 GG | =A2 A2- c2 A2 | B2 B4 | d2 |[M:4/4] B2 B2 B2 BB | %29
w: a- ku Kau de-|ngar- kan _ ta- *|ngis- ku, Kau be-|bas- kan _ di-|ri- ku.|Eng-|kau me- me- li- ha-|
 c2 c3 c cc | B2 B2 A2 A2 | G2 G4 BA | B2 B2 B2 =B2 | c2 e2- e2 ee | e2 e2 B2 B2 | A-G G6 | A8 | %37
w: ra- ku dan ti- dak|bi- ar- kan ku-|go- yah Eng- kau-|lah per- lin- dung-|an- ku _ Ku per-|ca- ya ke- pa-||A-|
 G8 | (A4 =B4 | B8) |] %40
w: min,|A- *|min.|
V:4
 G,2 | G,F,E,D, C,-D,E,=E, | =E,2 F,3 D, C,=B,, | C,2 C,2 A,,E,F,^F, | G,2 !fermata!G,4 G,G, | %5
w: Be-|ri- lah te- li- nga- * Mu Ya|Al- lah ke- pa- da|do- a dan per- mo- ho-|nan- ku. Per- ha-|
 F,2 G,G, =A,2 G,G, |[M:2/4] F,2 E,-D, | C,-D, E,=E, |[M:4/4] F,2 F,-G, A,F,E,F, | %9
w: ti- kan- lah a- ku, ja-|wab- lah _|a- * ku me-|nu- rut _ ka- sih se- ti-|
 G,2 !fermata!G,2 z2 (3G,G,G, | D,2 D,2 z G,G,G, | C,2 C,4 E,E, | F,2 F,-G, A,-C,E,-F, | %13
w: a- Mu. Ku me- ngem-|ba- ra, dan ku- me-|na- ngis, ku- di-|run- dung _ ke- * ta- *|
 G,2 !fermata!G,4 G,2 | (3G,A,G, !fermata!D,4 C2 | (3F,F,^F, G,2 !fermata!G,2 =F,F, | %16
w: kut- an. Ha-|ti- ku ce- mas, ji-|wa- ku ge- li- sah, ke- nge-|
[M:3/4] F,-G, F,F, F,A, |[M:4/4] G,2 !fermata!G,4 z2 ||[M:2/4] z G, G,G, |[M:3/4] C,2 C,D, E,=E, | %20
w: ri- * an me- nim- pa|a- ku.|Na- mun pa-|da- Mu ku ber- se-|
 F,3 F, F,F, | B,,2 B,,2 C,D, |[M:4/4] E,2 E,4 G,E, | D,2 D,2- D,2 E,-D, | C,2 C,4 G,G, | %25
w: ru, Eng- kau me-|nye- la mat- kan|a- ku Kau de-|ngar- kan _ ta- *|ngis- ku, Kau be-|
 F,2 F,2- F,2 E,2 | B,,2 B,,4 | A,2 |[M:4/4] G,2 E,2 E,2 E,E, | F,2 F,3 F, E,C, | %30
w: bas- kan _ di-|ri- ku.|Eng-|kau me- me- li- ha-|ra- ku dan ti- dak|
 B,,2 B,,2 D,2 D,2 | E,2 E,3 B,,- A,D, | E,2 E,2 E,2 G,2 | A,2 A,2- A,2 A,F, | B,2 B,2 B,,2 B,,2 | %35
w: bi- ar- kan ku-|go- yah Eng- * kau-|lah per- lin- dung-|an- ku _ Ku per-|ca- ya ke- pa-|
 E,2 E,6 | E,8 | E,8 | (E,8 | E,8) |] %40
w: da- Mu|A-|min,|A-|min.|

